usr/share/icons/biglinux-icons-material-dark/22/actions/gnumeric-object-list.svg

<svg id="svg6" version="1.1" viewBox="0 0 22 22" xmlns="http://www.w3.org/2000/svg">
    <defs id="defs3051">
        <style id="current-color-scheme" type="text/css">.ColorScheme-Text {
        color:#dedede;
      }</style>
    </defs>
    <path id="path4" class="ColorScheme-Text" d="m3 3v16h16v-16h-7zm1 1h8v14h-8zm11.5 0 0.375 0.375 2.125 1.9375-0.71875 0.6875-1.78125-1.625-1.78125 1.625-0.71875-0.6875 2.125-1.9375zm-10.5 2v1h5v-1zm0 3v1h5v-1zm0 3v1h5v-1zm0 3v1h5v-1zm8.71875 0 1.78125 1.625 1.78125-1.625 0.71875 0.6875-2.125 1.9375-0.375 0.375-0.375-0.375-2.125-1.9375z" fill="currentColor"/>
</svg>

<svg xmlns="http://www.w3.org/2000/svg" id="svg6" version="1.1" viewBox="0 0 22 22">
<defs id="defs3051">
<style id="current-color-scheme" type="text/css">
.ColorScheme-Text{color:#dedede}
</style>
</defs>
<path id="path4" fill="currentColor" d="M3 3v16h16V3h-7zm1 1h8v14H4zm11.5 0 .375.375L18 6.313 17.281 7 15.5 5.375 13.719 7 13 6.313l2.125-1.938zM5 6v1h5V6zm0 3v1h5V9zm0 3v1h5v-1zm0 3v1h5v-1zm8.719 0 1.781 1.625L17.281 15l.719.688-2.125 1.937L15.5 18l-.375-.375L13 15.688z" class="ColorScheme-Text"/>
</svg>
